symbols/web/record_voice_over/materialsymbolsrounded/record_voice_over_wght300grad200fill1_40px.svg

<svg xmlns="http://www.w3.org/2000/svg" height="40" width="40"><path d="M32.125 24.417q-.458-.459-.5-1.146-.042-.688.458-1.313 1.375-1.708 2.167-3.729.792-2.021.792-4.521 0-2.541-.792-4.541-.792-2-2.167-3.792-.5-.583-.479-1.25.021-.667.521-1.125.5-.5 1.146-.479.646.021 1.021.479 1.833 2.167 2.937 4.854 1.104 2.688 1.104 5.854 0 3.167-1.083 5.854-1.083 2.688-2.958 4.813-.375.5-1.021.5-.646 0-1.146-.458Zm-5.792-5.959q-.375-.375-.416-.937-.042-.563.25-1.188.375-.541.583-1.208.208-.667.208-1.417t-.208-1.395q-.208-.646-.583-1.271-.292-.584-.271-1.146.021-.563.437-.938.542-.583 1.271-.541.729.041 1.146.625.667 1.041 1.062 2.208.396 1.167.396 2.458 0 1.25-.396 2.438-.395 1.187-1.062 2.229-.417.625-1.146.646-.729.021-1.271-.563Zm-11.666 1.5q-2.709 0-4.459-1.77-1.75-1.771-1.75-4.48 0-2.708 1.771-4.479t4.438-1.771q2.708 0 4.479 1.771t1.771 4.479q0 2.709-1.771 4.48-1.771 1.77-4.479 1.77ZM3.292 34q-.709 0-1.167-.458-.458-.459-.458-1.209V30.25q0-1.5.729-2.562.729-1.063 2.021-1.688 2.166-1.042 4.916-1.75 2.75-.708 5.334-.708 2.625 0 5.375.708T24.958 26q1.25.625 2 1.688.75 1.062.75 2.562v2.083q0 .75-.479 1.209-.479.458-1.146.458Z"/></svg>

<svg xmlns="http://www.w3.org/2000/svg" height="40" width="40"><path d="M32.125 24.417Q31.667 23.958 31.625 23.271Q31.583 22.583 32.083 21.958Q33.458 20.25 34.25 18.229Q35.042 16.208 35.042 13.708Q35.042 11.167 34.25 9.167Q33.458 7.167 32.083 5.375Q31.583 4.792 31.604 4.125Q31.625 3.458 32.125 3Q32.625 2.5 33.271 2.521Q33.917 2.542 34.292 3Q36.125 5.167 37.229 7.854Q38.333 10.542 38.333 13.708Q38.333 16.875 37.25 19.562Q36.167 22.25 34.292 24.375Q33.917 24.875 33.271 24.875Q32.625 24.875 32.125 24.417ZM26.333 18.458Q25.958 18.083 25.917 17.521Q25.875 16.958 26.167 16.333Q26.542 15.792 26.75 15.125Q26.958 14.458 26.958 13.708Q26.958 12.958 26.75 12.313Q26.542 11.667 26.167 11.042Q25.875 10.458 25.896 9.896Q25.917 9.333 26.333 8.958Q26.875 8.375 27.604 8.417Q28.333 8.458 28.75 9.042Q29.417 10.083 29.812 11.25Q30.208 12.417 30.208 13.708Q30.208 14.958 29.812 16.146Q29.417 17.333 28.75 18.375Q28.333 19 27.604 19.021Q26.875 19.042 26.333 18.458ZM14.667 19.958Q11.958 19.958 10.208 18.188Q8.458 16.417 8.458 13.708Q8.458 11 10.229 9.229Q12 7.458 14.667 7.458Q17.375 7.458 19.146 9.229Q20.917 11 20.917 13.708Q20.917 16.417 19.146 18.188Q17.375 19.958 14.667 19.958ZM3.292 34Q2.583 34 2.125 33.542Q1.667 33.083 1.667 32.333V30.25Q1.667 28.75 2.396 27.688Q3.125 26.625 4.417 26Q6.583 24.958 9.333 24.25Q12.083 23.542 14.667 23.542Q17.292 23.542 20.042 24.25Q22.792 24.958 24.958 26Q26.208 26.625 26.958 27.688Q27.708 28.75 27.708 30.25V32.333Q27.708 33.083 27.229 33.542Q26.75 34 26.083 34Z"/></svg>
